X:261
T:Johnstown Reel
M:4/4
L:1/8
R:reel
C:Rebecca Knorr
D:The Tannahill Weavers: Alchemy
N:Learned from The Tannahill Weavers: Alchemy
N:They play it in Cm
Z:Michael Abraham Shulman
N:Set with The Silver Whistle
K:Bm
BF (3FFF dedc|BF (3FFF fedc|BF (3FFF Bcde|fgfd c2dc|
BF (3FFF dF (3FFF|eF (3FFF f2fd|efec dedB|ABcA F2DE||
Fdcd Bdcd|edce fBAB|Fdcd Bcde|fgfd c2dc|
BF (3FFF dF (3FFF|eF (3FFF f2fd|efec dedB|ABcA F2dc||
